icons/mobile/24/svg/storage-slash-24.svg

<svg width="24" height="24" viewBox="0 0 24 24" fill="none" xmlns="http://www.w3.org/2000/svg">
<path d="M7.25 10.4996C7.94022 10.4996 8.49977 11.0595 8.5 11.7496C8.5 12.44 7.94036 12.9996 7.25 12.9996C6.55964 12.9996 6 12.44 6 11.7496C6.00023 11.0595 6.55978 10.4996 7.25 10.4996Z" fill="black"/>
<path fill-rule="evenodd" clip-rule="evenodd" d="M3.25586 2.25549C3.59751 1.914 4.15246 1.91404 4.49414 2.25549L8.35156 6.11292H8.35449L10.0244 7.78284H10.0215L22.7441 20.5055C23.0858 20.8472 23.0857 21.4021 22.7441 21.7438C22.4024 22.0855 21.8476 22.0855 21.5059 21.7438L17.4951 17.733C15.6664 17.9102 13.8204 17.9996 12.001 17.9996C9.58307 17.9996 7.13917 17.8428 4.73926 17.5338C3.17826 17.3318 2.00098 15.9954 2.00098 14.4264V9.56604C2.00098 7.99804 3.16498 6.6635 4.70898 6.4635C5.16087 6.40477 5.61422 6.35369 6.06836 6.30627L3.25586 3.49377C2.91436 3.15205 2.91422 2.59713 3.25586 2.25549ZM7.67969 7.9176C6.75997 7.98934 5.84256 8.08287 4.93262 8.20081C4.25879 8.28796 3.75 8.87516 3.75 9.56604V14.4264C3.75 15.1184 4.27097 15.7075 4.96191 15.7965C8.56075 16.2605 12.2273 16.3502 15.8535 16.0914L7.67969 7.9176Z" fill="black"/>
<path d="M10.3838 6.02405C13.3507 5.94005 16.3288 6.08457 19.2607 6.46155C20.8217 6.66354 21.9989 7.99909 21.999 9.56799V14.4293C21.999 15.3073 21.6252 16.1044 21.0322 16.6774L19.791 15.4352C20.067 15.1812 20.25 14.8303 20.25 14.4293V9.56799C20.2499 8.87609 19.729 8.28687 19.0381 8.19788C16.7482 7.90189 14.4173 7.7527 12.1084 7.74768L12.1074 7.74866L10.3838 6.02405Z" fill="black"/>
</svg>

<!-- This Source Code Form is subject to the terms of the Mozilla Public
   - License, v. 2.0. If a copy of the MPL was not distributed with this
   - file, You can obtain one at http://mozilla.org/MPL/2.0/. -->
<svg xmlns="http://www.w3.org/2000/svg" width="24" height="24" fill="none" viewBox="0 0 24 24">
    <path fill="#000" d="M7.25 10.5a1.25 1.25 0 1 1 0 2.5 1.25 1.25 0 0 1 0-2.5" />
    <path fill="#000" fill-rule="evenodd" d="M3.256 2.255a.876.876 0 0 1 1.238 0l3.858 3.858h.002l1.67 1.67h-.002l12.722 12.723a.876.876 0 0 1-1.238 1.238l-4.01-4.011A57 57 0 0 1 12 18c-2.418 0-4.862-.157-7.262-.466A3.145 3.145 0 0 1 2 14.426v-4.86c0-1.568 1.164-2.903 2.708-3.103q.678-.087 1.36-.157L3.255 3.494a.876.876 0 0 1 0-1.239M7.68 7.918q-1.381.106-2.747.283A1.37 1.37 0 0 0 3.75 9.566v4.86c0 .692.521 1.281 1.212 1.37a55 55 0 0 0 10.892.295z" clip-rule="evenodd" />
    <path fill="#000" d="M10.384 6.024a57 57 0 0 1 8.877.438 3.144 3.144 0 0 1 2.738 3.106v4.861c0 .878-.374 1.675-.967 2.248l-1.241-1.242c.276-.254.459-.605.459-1.006V9.568c0-.692-.521-1.281-1.212-1.37a55 55 0 0 0-6.93-.45z" />
</svg>
